X:502
T:Mr’s Browns Hornpipe. RH.502
T:Liverpool Hornpipe,aka. RH.502
R:.hornpipe
S:Rev.R.Harrison’s MS,c1815,Cumbria
O:England
A:Temple Sowerby,Cumbria
Z:vmp.Simon Wilson. Review PJH, 2008.
M:C|
L:1/8
Q:1/2=80
K:D
A>G|FAFA dfaf|g>ef>d ecAF|GBGB FAFA|E2e2 e2A>G|!
FAFA dfaf|g>ef>d ecAc|B2b2 ag/f/ gf/e/|f2d2 d2:|!
|:fg|a>fa>f d2fg|a>fa>f d2ga|b>c’b>a gfed|c2e2 e3f|!
gbgb fafa|egeg dcBA|B2b2 ag/f/ gf/e/|f2d2 d2:|

